X:1
T:James Gibb editions
T:Eins bitte ich vom Herren - Schütz
T:#
%%score [ 1 2 ] 3
L:1/8
Q:1/4=200
M:none
K:F
V:1 treble-8 nm="Tenor I"
V:2 treble-8 nm="Tenor II"
V:3 bass nm="Continuo"
V:1
"^Eins bitte ich vom Herren, SWV 294""^Heinrich Schütz\n(1585-1672)""^Psalm 27:4" c8 d4 G4 | %1
w: Eins bit- te|
 A6 G2 G8 | F4 z2 F2 D3 D E4 | F4 z4 z4 z2 c2 | A3 A =B4 c8 | z8 z4 z2 c2 | B3 F G4 A8 | %7
w: ich vom Her-|ren, das hät- te ich|gern, das|hät- te ich gern,|das|hät- te ich gern,|
 z2 G2 G2 G2 A4 A2 G2 | F8 D4 E4 | F8 E8 | z8 c8 | d4 G4 A4 F2 (F2- | F2 ED E4) F4 z2 A2 | %13
w: dass ich im Hau- se des|Herrn mö- ge|blei- ben,|eins|bit- te ich vom Her\-|* * * * ren, das|
 F3 F G4 A8 | z16 | z16 | z16 | z8 z2 d2 d2 d2 | _e4 e2 d2 c8 | d4 c4 B8 | A4 f4 e6 e2 | d8 z8 | %22
w: hät- te ich gern,||||dass ich im|Hau- se des Herrn|mö- ge blei-|ben mein Le- be-|lang,|
 z8 z4 d4 | c8 B4 z2 F2 | G2 D2 B3 A G2 F2 E2 E2 | z2 G2 A2 E2 c3 B A2 B2 | G8 F8 | z16 | %28
w: zu|schau- en die|schö- nen Got- tes- dienst des Her- ren,|die schö- nen Got- tes- dienst des|Her- ren,||
 z8 z2 G2 G2 A2 | B2 B2 B2 c2 d4 f2 _e2- | e2 d2 c4 B4 d4 | _e8 d8 | z2 c2 d2 A2 f3 _e d2 c2 | %33
w: und sei- nen|Tem- pel, sei- nen Tem- pel zu|* be- su- chen, zu|schau- en|die schö- nen Got- tes- dienst des|
 (=B2 c4 B2) c4 z2 G2 | A2 E2 c3 B A2 G2 (FGFE | D8) E8 | z2 F2 F2 G2 A4 c2 B2- | B2 A2 G4 F8 | %38
w: Her\- * * ren, die|schö- nen Got- tes- dienst des Her\- * * *|* ren,|und sei- nen Tem- pel zu|* be- su- chen,|
 z16 | z2 F2 F2 G2 A4 c4 | z4 z2 G2 G2 A2 B4 |[Q:1/4=197] d4[Q:1/4=189] B8[Q:1/4=181] A4 | %42
w: |und sei- nen Tem- pel,|und sei- nen Tem|pel zu be-|
[Q:1/4=174] G8 |[Q:1/4=170] F16 |] %44
w: su-|chen.|
V:2
 z16 | z16 | c8 d4 G4 | A6 G2 G8 | F4 z4 z4 z2 c2 | A3 A =B4 c4 z2 F2 | D3 D E4 F8 | z16 | z16 | %9
w: ||Eins bit- te|ich vom Her-|ren, das|hät- te ich gern, das|hät- te ich gern,|||
 z8 c8 | d4 G4 A4 F2 (F2- | F2 ED E4) F4 A4 | G8 F4 z2 F2 | D3 D E4 F8 | z2 c2 c2 c2 d4 d2 c2 | %15
w: eins|bit- te ich vom Her\-|* * * * ren, vom|Her- ren, das|hät- te ich gern,|dass ich im Hau- se des|
 B8 G4 A4 | B8 A4 G4 | A6 A2 G8 | z16 | z8 z4 d4 | (f3 e d8) ^c4 | d8 z4 F4 | G8 F8 | %23
w: Herrn mö- ge|blei- ben mein|Le- be- lang,||mein|Le\- * * be-|lang, zu|schau- en|
 z8 z2 F2 G2 D2 | B3 A G2 F2 E2 F2 z2 G2 | A2 E2 c3 B A2 G2 (F4- | F2 ED E4) F8 | %27
w: die schö- nen|Got- tes- dienst des Her- ren, die|scö- nen Got- tes- dienst des Her\-|* * * * ren,|
 z2 C2 C2 D2 _E4 G2 F2- | F2 _E2 D4 C8 | z2 G2 G2 A2 B4 d2 G2 | A2 (B4 A2) B8 | z4 G4 B8 | %32
w: und sei- nen Tem- pel zu|* be- su- chen,|und sei- nen Tem- pel zu|be- su\- * chen,|zu schau-|
 A4 z2 c2 d2 A2 f3 _e | d2 _e2 d4 c2 G2 A2 E2 | c3 B A2 G2 (FEFG A4- | A2 GF G4) A8 | z16 | %37
w: en die schö- nen Got- tes-|dienst des Her- ren, die schö- nen|Got- tes- dienst des Her\- * * * *|* * * * ren,||
 z8 z2 D2 D2 E2 | F4 A2 G4 F2 E4 | D8 z4 z2 G2 | G2 A2 B4 d4 z4 | G8 E4 (F4- | F2 ED E4) | F16 |] %44
w: und sei- nen|Tem- pel zu be- su-|chen, und|sei- nen Tem- pel|zu be- su\-||chen.|
V:3
 F,8 B,,4 C,4 | F,4 B,,4 x4- x4 | F,4 F,,4 B,,4 C,4 | F,4 B,,4 x4- x4 | F,,4 G,,4 C,4 A,4 | %5
w: |* * 4||* * 4||
w: |||||
 F,2 A,2 G,4 C,4 A,,4 | B,,2 D,2 C,4 F,,8 | C,8 F,,4 F,,2 E,,2 | F,,4 B,,8 A,,4 | D,8 C,4 C,4 | %10
w: * * * * 6||* * * 6|||
w: |||||
 B,,4 C,4 F,4 F,,4 | B,,4 C,4 F,,4 F,,4 | x4- x4 F,,4 z2 F,,2 | B,,2 D,2 C,4 F,,8 | %14
w: ||4 * *||
w: ||||
 F,4 F,2 F,2 B,4 B,2 A,2 | G,4 G,8 ^F,4 | G,8 D,4 _E,4 | D,8 G,,4 G,4 | _E,8 F,8 | B,4 A,4 G,8 | %20
w: ||||||
w: ||||||
 D,8 x4- x4 | D,8 D,8 | C,8 F,,4 B,,4 | F,8 B,,4- x2 x2 | x2- x2 x2- x2 C,2 F,,2 C,4- | %25
w: * 4||||6 6 * * *|
w: |||||
 x2 x2 x2- x2 x2 x2 D,2 B,,2 | x4- x4 F,,8 | C,4 C,2 =B,,2 C,4 C,2 F,,2 | x2- x4 x2 C,4 C,2 A,,2 | %29
w: 6 * *|4 *|* * * * * 6||
w: ||||
 G,,2 G,4 F,2 B,2 G,2 D,2 _E,2 | x2- x4 x2 B,,4 B,,4 | _E,8 B,,8 | F,4 x2- x2 x2 x2 x2- x2 | %33
w: |7 * *||* 6 6|
w: |3 * *|||
 x2- x2 x2 x2 C,4 (x2- x2 | x2) x2 x2- x2 D,6 C,2 | x4- x4 A,,8 | D,4 D,2 C,2 F,4 A,,2 B,,2 | %37
w: * * 6|6 * 6|7 *||
w: ||||
 x2- x4 x2 F,,2 B,,4 A,,2 | D,4 F,,2 G,,2 x2- x4 x2 | D,8 F,4 C,4- | C,4 G,,8 G,,4- | %41
w: 7 * * *|* * * 7|||
w: 3 * * *||||
 G,,4 G,,4 (x4- x4 | x4) x4 | F,,16 |] %44
w: * * 7|||
w: * * 3|||

